X:27
T:HIGHWAY TO DUBLIN -- JIG.
R:jig
B:Coles pg. 64.7
Z:John B. Walsh, <walsh:mat:h.ubc.ca> 5/19/02
M:6/8
L:1/8
K:G
ug|gfe c>BA|ecA A2g|fed cBc|dBG G2g|
f>ed c>BA|def ef^g|a=gf gfe|dBG G2:|
|:ug|faf g2f|ecA A2g|faf g2e|dBG G2g|
faf geg|fdf ef^g|a=gf gfe|dBG G2:|
